www/assets/icons/add_a_photo.svg

<svg xmlns="http://www.w3.org/2000/svg" width="24" height="24" viewBox="0 0 24 24" fill='currentColor'><path d="M3.5 4.5v-3h2v3h3v2h-3v3h-2v-3h-3v-2zm3 6v-3h3v-3h7l1.83 2h3.17c1.1 0 2 .9 2 2v12c0 1.1-.9 2-2 2h-16c-1.1 0-2-.9-2-2v-10zm7 9c2.76 0 5-2.24 5-5s-2.24-5-5-5-5 2.24-5 5 2.24 5 5 5m-3.2-5c0 1.77 1.43 3.2 3.2 3.2s3.2-1.43 3.2-3.2-1.43-3.2-3.2-3.2-3.2 1.43-3.2 3.2"/></svg>

<svg width="24" height="24" viewBox="0 0 24 24" xmlns="http://www.w3.org/2000/svg" fill='currentColor'><path d="M3.5 4.5V1.5H5.5V4.5H8.5V6.5H5.5V9.5H3.5V6.5H0.5V4.5H3.5ZM6.5 10.5V7.5H9.5V4.5H16.5L18.33 6.5H21.5C22.6 6.5 23.5 7.4 23.5 8.5V20.5C23.5 21.6 22.6 22.5 21.5 22.5H5.5C4.4 22.5 3.5 21.6 3.5 20.5V10.5H6.5ZM13.5 19.5C16.26 19.5 18.5 17.26 18.5 14.5C18.5 11.74 16.26 9.5 13.5 9.5C10.74 9.5 8.5 11.74 8.5 14.5C8.5 17.26 10.74 19.5 13.5 19.5ZM10.3 14.5C10.3 16.27 11.73 17.7 13.5 17.7C15.27 17.7 16.7 16.27 16.7 14.5C16.7 12.73 15.27 11.3 13.5 11.3C11.73 11.3 10.3 12.73 10.3 14.5Z"/></svg>
